X:1
T:O Hertz von harten Steinen
T:Antonio Brunelli
T:Source : Tricinia---Johann-Jacob Gastoldi und anderer Autorn---Nürnberg---P.Kauffmann---1607. Editor : André Vierendeels (17/03/17).
T:Notes : Original clefs : C1, C1, F4 Text Middle German by Valentin Hauszmann Sub-heading : from "Affettuoso Invaghito"
T:O Hertz von harten Steinen
T:©
T:©
C:Antonio Brunelli
Z:©
%%score [ 1 2 3 ]
L:1/8
Q:1/4=120
M:4/4
K:C
V:1 treble nm="Soprano 1" snm="S 1"
V:2 treble nm="Soprano 2" snm="S 2"
V:3 bass nm="Bass" snm="B"
V:1
"^1)" d8 | e6 d2- | d2 d2 c4 | B8 | A4 z2 e2- | e2 d3 c c2- | cB B3 A/G/ B2 | A4 z2 c2- | %8
w: O|Hertz, von|_ har- ten|Stei-|nen wenn|_ läszt du dich|_ er- wei- * * *|chen? Wenn|
w: Die|mich heff-|* tig thut|que-|len, mit|_ vil- fäl- ti-|* gen pla- * * *|gen, mit|
 c2 B3 B A2- | A2 B2 A4 |1[M:2/4] G4- ::2[M:4/4] G8 || z2 ee c4 | d3 d e4 | d4 z2 GG | E4 ^F3 F | %16
w: _ läszt du dich|_ er- wei-|chen?||Ei- le doch,|dei- ner Lie-|be, ei- le|doch, dei- ner|
w: _ vil- fäl- ti-|* gen pla-|gen,||die setz- und|mei- ne not-|durfft, die setz-|und mei- ne|
 G8 | E2 ^F4 G2- | G2 ^F2 !fermata!G4 :| %19
w: Lie-|be, gib ein|_ Zei- chen.|
w: not-|durfft musz ich|_ kla- gen.|
V:2
"^2)""^1)" B8 | G4 G4 | ^G4 G2 A2- | A2 ^G^F G4 | A4 G4 | G3 G A3 A | d4 G4- | G2 ^F2 G4 | %8
w: O|Hertz, von|har- ten Stei-||nen, wenn|läszt du dich er-|wei- *|* * chen?|
w: Kan|ich dich|nicht be- we-||gen, durch|durch- so vil gu-|te wor-|* * te|
 ^F3 F E4 | ^F2 G4 F2 |1[M:2/4] G4 ::2[M:4/4] z2 dd B4 || c3 c A4 | B4 z2 cc | A4 B3 B | G4 A4 | %16
w: läszt du dich|er- wei- *|chen?|Ei- le doch,|dei- ner Lie-|be, ei- le|doch, dei- ner|Lie- be,|
w: durch so vil|gu- te wor-|te,|ich be- dencks|doch, an wel-|cher ich be-|decks doch, an|wel- cher|
 B8 | A4 A4- | A4 G4 :| %19
w: gib|ein Zei-|* chen.|
w: stätt|und or-|* te.|
V:3
"^1)""^4)""^3)" G,8 | C,4 B,,4 | E,6 E,2 | E,8 | A,,4 C4 | B,3 B, A,3 A, | G,8 | D,4 E,4 | %8
w: O|Hertz, von|har- ten|Stei-|nen, wenn|läszt du dich er-|wei|chen? Wenn|
w: Wil|mein bit-|ten und|fle-|hen, bey|dir auch nich- tes|schaf-|fen, bey|
 D,3 D, C,3 C, | D,8 |1[M:2/4] G,,4- ::2[M:4/4] G,,4 z2 G,G, || E,4 F,3 F, | D,4 C,4 | %14
w: läszt du dich er-|wei-|chen?|* Ei- le|doch dei- ner|Lie- be,|
w: dir auch nich- tes|scha-|ffen,-|* so ist|dein har- tes|Her- ze,|
 z2 D,D, B,,4 | C,3 C, A,,4 | G,,4 C,4- | C,2 D,2 D,4- | D,4 G,,4 :| %19
w: ei- le doch,|dei- ner Lie-|be, gib|_ ein Zei-|* chen|
w: so ist dein|har- tes Her-|ze, hoch|_ zu stra-|* ffen|

